!!!!SEGMENT: pl-kk--kk-i-70--001-003_anonim--missa-5ta-sanctus.krn
!!!cenid: 17xx:2295
!!!COM: Anonim
!!!COM-rismID: pe30004985
!!!CDT:
!!!CNT:
!!!OPR: Missa 5ta
!!!OTL: Sanctus
!!!OMV: 003
!!!PDT:
!!!AGN: Sacred; Mass
!!!YEC: Copyright 2022 Narodowy Instytut Fryderyka Chopina (https://polishscores.org)
!!!YEM: License CC-BY-4.0 (https://creativecommons.org/licenses/by/4.0)
!!!SMS-siglum: PL-Kk
!!!SMS-shelfmark: Kk.I.70
!!!SMS-shelfwork: 001-003 M
!!!SMS-variant: Baſso PL-Kk KK.I.70:0017
!!!SMS-altvar: Baſso PL-Kk KK.I.70:0022
!!!NIFC-rismSourceID: 1001154790
!!!NIFC-rismChildID: 1001154791
!!!NIFC-islandoraID: pl-kk:15771
!!!URL-pdf-islandora: https://repozytorium.nifc.pl/islandora/object/pl-kk%3A15771/datastream/PDF/view
!!!URL-scan: https://polish.musicsources.pl/pl/lokalizacje/galeria/rekopisy/7335/1 @EN{Scan on Polish Music Sources Website} @PL{Skany w portalu Dziedzictwo Muzyki Polskiej w otwartym dostępie}
!!!IIIF:
!!!ONB-nifc: UWAGA: w zbiorze Msza 5ta i 6ta. Części Mszy: 1. Kyrie, 2. Et in terra, 3. Sanctus, 4. Agnus Dei
!!!AIN: 1 alto 1 empty 1 soprn 1 tenor
!!!key:
**kern	**text	**kern	**text	**kern	**text	**kern	**text
*part4	*	*part3	*	*part2	*	*part1	*
*staff4	*	*staff3	*	*staff2	*	*staff1	*
*Iempty	*	*Itenor	*	*Ialto	*	*Isoprn	*
*I"Baſso	*	*I"Tenore	*	*I"Alto.	*	*I"Soprano	*
*I'B	*	*I'T	*	*I'A	*	*I'S.	*
*clefF4	*	*clefC4	*	*clefC3	*	*clefC1	*
*k[]	*	*k[]	*	*k[]	*	*k[]	*
*C:	*	*C:	*	*C:	*	*C:	*
*M2/2	*	*M2/2	*	*M2/2	*	*M2/2	*
*met(c|)	*	*met(c|)	*	*met(c|)	*	*met(c|)	*
=1	=1	=1	=1	=1	=1	=1	=1
*	*	*	*	*2\right	*	*	*
!LO:TX:a:t=Moderato	!	!LO:TX:a:t=Moderato	!	!LO:TX:a:t=Moderato	!	!LO:TX:a:t=Moderato	!
8c\L	San-	8c\L	San-	2e\	San-	1g	San-
8G\	.	8B\	.	.	.	.	.
8E\	.	8c\	.	.	.	.	.
8G\J	.	8B\J	.	.	.	.	.
8C/L	.	4c\	.	8e\L	.	.	.
8E/	.	.	.	8g\	.	.	.
8D/	.	8B\L	.	8f\	.	.	.
8C/J	.	8c\J	.	8e\J	.	.	.
=2	=2	=2	=2	=2	=2	=2	=2
4G\	ctus	4d\	-ctus	8g\L	-ctus	4b\	-ctus
.	.	.	.	8f\J	.	.	.
*	*	*	*	*	*	*2\right	*ij
4r	.	8B\L	San-	8d\L	San-	2g\	San-
.	.	8c\J	.	8e\J	.	.	.
2r	.	8d\L	.	8f\L	.	.	.
.	.	8c\	.	8e\J	.	.	.
.	.	8d\	.	8f\L	.	4g\	-ctus
*	*	*	*	*	*	*	*Xij
.	.	8B\J	.	8d\J	.	.	.
=3	=3	=3	=3	=3	=3	=3	=3
8c\L	San-	4c\	-ctus	4e\	-ctus	1g	San-
8G\	.	.	.	.	.	.	.
8E\	.	8e\L	San-	8g\L	San-	.	.
8G\J	.	8c\J	.	8e\J	.	.	.
*	*	*2\right	*	*	*	*	*
8E\L	.	2c\	.	8e\L	.	.	.
8C\	.	.	.	8g\J	.	.	.
8E\	.	.	.	8g\L	.	.	.
8G\J	.	.	.	8e\J	.	.	.
=4	=4	=4	=4	=4	=4	=4	=4
4B-X\	-ctus	4c\	-ctus	4g\	-ctus	4cc\	-ctus
*	*	*	*	*	*	*	*ij
4r	.	8c\L	San-	8e\L	San-	2cc\	San-
.	.	8d\J	.	8f\J	.	.	.
2r	.	8e\L	.	8g\L	.	.	.
.	.	8g\J	.	8b-X\J	.	.	.
.	.	8f\L	-ctus	8a\L	-ctus	4cc\	-ctus
*	*	*	*	*	*	*	*Xij
.	.	8e\J	.	8g\J	.	.	.
!	!	!LO:LB:g=original	!	!LO:LB:g=original	!	!	!
=5	=5	=5	=5	=5	=5	=5	=5
4.A\	Do-	4.c\	Do-	4.f\	Do-	4.cc\	Do-
8A\	-mi-	8c\	-mi-	8f\	-mi-	8cc\	-mi-
*2\right	*	*	*	*	*	*	*
2A\	-nus	2c\	-nus	2f\	-nus	2cc\	-nus
!LO:LB:g=original	!	!	!	!	!	!	!
=6	=6	=6	=6	=6	=6	=6	=6
2Bn\	De-	2d\	De-	2f\	De-	2g/	De-
2c\	-us	2G/	-us	2e\	-us	2g/	-us
=7	=7	=7	=7	=7	=7	=7	=7
2c\	Sa-	2G/	Sa-	2e\	Sa-	2cc\	Sa-
4A\	.	4c\	.	4f#X\	.	4cc\	.
4F#X\	-ba-	4c\	-ba-	4a\	-ba-	4a\	-ba-
!	!	!	!	!	!	!LO:LB:g=original	!
=8	=8	=8	=8	=8	=8	=8	=8
2G\	-oth	2B\	-oth	2g\	-oth.	2dd\	-oth
2r;	.	2r	.	2r	.	2r	.
=9||	=9||	=9||	=9||	=9||	=9||	=9||	=9||
!LO:TX:a:t=allo	!	!LO:TX:a:t=allo	!	!	!	!LO:TX:a:t=allo	!
1r	.	2c\	Ple-	2e\	Ple-	2g/	Ple-
.	.	4c\	-ni	4e\	-ni	4g/	-ni
.	.	4c\	sunt	4e\	sunt	4g/	sunt
=10	=10	=10	=10	=10	=10	=10	=10
2r	.	2c\	cae-	2f\	cae-	2a\	cae-
4r	.	4c\	-li	4e\	-li	4g\	-li
4c\	et	4c\	et	4e\	et	4g\	et
!	!	!LO:LB:g=original	!	!	!	!	!
=11	=11	=11	=11	=11	=11	=11	=11
4B\	ter-	4d\	ter-	1f	ter-	1g	ter-
4G\	.	4B\	.	.	.	.	.
4A\	.	4c\	.	.	.	.	.
4B\	.	4d\	.	.	.	.	.
!	!	!	!	!LO:LB:g=original	!	!	!
=12	=12	=12	=12	=12	=12	=12	=12
2c\	ra	2c\	-ra	2e\	-ra	2g\	-ra
4c\	glo-	4e\	glo-	4g\	glo-	4g\	glo-
8B\	-ri-	8d\	-ri-	8f\	-ri-	8g\	-ri-
8c\	-a	8c\	-a	8e\	-a	8g\	-a
!LO:LB:g=original	!	!	!	!	!	!	!
=13	=13	=13	=13	=13	=13	=13	=13
4G\	tu-	4c\	tu-	4e\	tu-	4g\	tu-
4G\	-a	4B\	-a	4d\	-a	4g\	-a
2r	.	2r	.	2r	.	2r	.
!	!	!	!	!	!	!LO:LB:g=original	!
=14	=14	=14	=14	=14	=14	=14	=14
4F\	glo-	2.c\	glo-	1f	glo-	4a/	glo-
4G\	.	.	.	.	.	4g/	.
4A\	.	.	.	.	.	4f/	.
4B\	.	4d\	.	.	.	4g/	.
=15	=15	=15	=15	=15	=15	=15	=15
4c\	.	4e\	.	2e\	.	2g\	.
4G\	.	4c\	.	.	.	.	.
4E\	-ri-	4c\	-ri-	4g\	-ri-	4g\	-ri-
4C\	-a	4c\	-a	4e\	-a	4g\	-a
=16	=16	=16	=16	=16	=16	=16	=16
4F\	tu-	2d\	tu-	2f\	tu-	2a\	tu-
4D\	.	.	.	.	.	.	.
4G\	.	2B\	.	2d\	.	2g\	.
4GG/	.	.	.	.	.	.	.
=17	=17	=17	=17	=17	=17	=17	=17
2C/	-a	1c	-a	1e	-a	2g\	-a
2r	.	.	.	.	.	2r	.
!LO:LB:g=original	!	!LO:LB:g=original	!	!LO:LB:g=original	!	!LO:LB:g=original	!
=18||;;	=18||	=18||;;	=18||	=18||	=18||	=18||;;	=18||
*M3/4	*	*M3/4	*	*M3/4	*	*M3/4	*
!LO:TX:a:t=allô	!	!LO:TX:a:t=allo	!	!LO:TX:a:t=allo	!	!LO:TX:a:t=allo	!
4C/	O-	4e\	O-	4g\	O-	4cc\	O-
4BB/	.	4d\	.	4f\	.	2g\	.
8C/L	.	4c\	.	4e\	.	.	.
8E/J	.	.	.	.	.	.	.
=19	=19	=19	=19	=19	=19	=19	=19
4G\	-san-	4c\	san-	4e\	san-	2g/	-san-
4GG/	.	4B\	.	4d\	.	.	.
4C/	-na	4c\	-na	4e\	-na	4g/	-na
=20	=20	=20	=20	=20	=20	=20	=20
8F\	in	8A\	in	8d\	in	8cc\	in
8F\	ex-	8A\	ex-	8d\	ex-	8cc\	ex-
4G\	-cel-	4c\	-cel-	4e\	-cel-	2g\	-cel-
4GG/	.	4B\	.	4d\	.	.	.
=21	=21	=21	=21	=21	=21	=21	=21
4C/	-sis	4c\	-sis	4e\	-sis	4g\	-sis
4r	.	4r	.	4r	.	4r	.
4c\	O-	4e\	O-	4g\	O-	4g\	O-
=22	=22	=22	=22	=22	=22	=22	=22
4.B\	-san-	4.d\	-san-	4.g\	-san-	4.g\	-san-
8A\	na	8c\	-na	8f#X\	-na	8a\	na
4G\	in	4B\	in	4g\	in	4b\	in
=23	=23	=23	=23	=23	=23	=23	=23
4C/	ex-	4c\	ex-	4a\	ex-	4ee\	ex-
2D/	-cel-	4B\	cel-	4g\	-cel-	2dd\	-cel-
!	!	!	!	!LO:SIC:v:s=4f#\	!	!	!
.	.	4A\	.	4f\	.	.	.
!LO:LB:g=original	!	!LO:LB:g=original	!	!LO:LB:g=original	!	!	!
=24	=24	=24	=24	=24	=24	=24	=24
4GG/	-sis	4B\	-sis	4g\	-sis.	4dd\	-sis
4r	.	4r	.	4r	.	4r	.
4G\	O-	4B\	O-	4d\	O-	4dd\	O-
!	!	!	!	!	!	!LO:LB:g=original	!
=25	=25	=25	=25	=25	=25	=25	=25
4G\	-san-	4B\	-san-	4d\	-san-	4dd\	-san-
4B\	.	4d\	.	2g\	.	4ff\	.
4c\	.	4e\	.	.	.	4ee\	.
=26	=26	=26	=26	=26	=26	=26	=26
4G\	.	4e\	.	2g\	.	4cc\	.
4F\	.	4d\	.	.	.	4b\	.
4E\	-na	4c\	-na	4g\	-na	4cc\	-na
=27	=27	=27	=27	=27	=27	=27	=27
4G\	in	4B\	in	4d\	in	4dd\	in
4B\	ex-	4d\	ex-	2g\	ex-	4ff\	.
4c\	.	4e\	.	.	.	4ee\	ex-
=28	=28	=28	=28	=28	=28	=28	=28
4G\	-cel-	4e\	-cel-	2.g\	-cel-	4cc\	-cel-
4F\	.	4d\	.	.	.	4b\	.
4E\	.	4c\	.	.	.	4cc\	.
=29	=29	=29	=29	=29	=29	=29	=29
4F\	.	4d\	.	8a\L	.	4a\	.
.	.	.	.	8f\J	.	.	.
4G\	.	4c\	.	4e\	.	2g\	.
4GG/	.	4B\	.	4d\	.	.	.
=30	=30	=30	=30	=30	=30	=30	=30
2C/	-sis	2c\	-sis	2e\	-sis	2g\	-sis.
4r	.	4r	.	4r	.	4r	.
!LO:LB:g=original	!	!LO:LB:g=original	!	!LO:LB:g=original	!	!LO:LB:g=original	!
=31||;;	=31||	=31||;;	=31||	=31||;;	=31||	=31||;;	=31||
*M3/4	*	*M3/4	*	*M3/4	*	*M3/4	*
!LO:TX:a:t=Lente	!	!LO:TX:a:t=Lente	!	!LO:TX:a:t=Lente	!	!LO:TX:a:t=Lente	!
4AA/	Be-	8c\L	Be-	8e\L	Be-	2a\	Be-
.	.	8d\J	.	8f\J	.	.	.
4A\	.	4c\	.	4e\	.	.	.
4E\	-ne-	4B\	-ne-	4d\	-ne-	4g#X\	-ne-
=32	=32	=32	=32	=32	=32	=32	=32
4C/	-di-	16c\LL	-di-	16e\LL	-di-	4a\	-di-
.	.	16B\	.	16d\	.	.	.
.	.	16A\	.	16c\	.	.	.
.	.	16B\JJ	.	16d\JJ	.	.	.
4AA/	-ctus	4A\	-ctus	4c\	-ctus	4ee\	-ctus
4A\	qvi	4c\	qvi	4e\	qvi	4a\	qvi
=33	=33	=33	=33	=33	=33	=33	=33
4D\	ve-	4B\	ve-	4d\	ve-	4f/	ve-
2E\	.	4A\	.	4c\	.	2e/	.
.	.	4G#X\	.	4B\	.	.	.
=34	=34	=34	=34	=34	=34	=34	=34
4AA/	-nit	4A\	-nit	4c/	-nit	4e/	-nit
4r	.	4r	.	4r	.	4r	.
4r	.	8r	.	8r	.	8r	.
.	.	8A/	qvi	8c/	qvi	8e/	qvi
=35	=35	=35	=35	=35	=35	=35	=35
!LO:N:vis=00	!	!	!	!	!	!	!
0.r	.	4A/	ve-	4c/	ve-	4ee\	ve-
.	.	4G#X/	-nit	4B/	-nit	4ee\	-nit
.	.	4B/	qvi	4d/	qvi	4ee\	qvi
=36	=36	=36	=36	=36	=36	=36	=36
.	.	4B\	ve-	4d\	ve-	4ee\	ve-
.	.	4A\	-nit	4c\	-nit	4ee\	-nit
.	.	4c\	in	4e\	in	4a\	in
!	!	!LO:LB:g=original	!	!LO:LB:g=original	!	!LO:LB:g=original	!
=37	=37	=37	=37	=37	=37	=37	=37
.	.	8c\L	no-	2e\	no-	8a\L	no-
.	.	8B\	.	.	.	8g#X\J	.
.	.	8d\	.	.	.	8cc\L	.
.	.	8c\J	.	.	.	8b\J	.
.	.	8B\	-mi-	8e\	-mi-	8g#X\	-mi-
.	.	8c\	-ne	8e\	-ne	8a\	-ne
=38	=38	=38	=38	=38	=38	=38	=38
.	.	8c\L	Do-	8e\	Do-	8a\	do-
.	.	8B\J	mi-	8e\	-mi-	8g#X\	-mi-
.	.	4B\	-ni	4e\	-ni	4g#\	-ni
.	.	4r	.	4r	.	4r	.
=39	=39	=39	=39	=39	=39	=39	=39
4C/	Be-	8e\L	Be-	8g\L	Be-	2cc\	Be-
.	.	8f\J	.	8a\J	.	.	.
4E/	.	4e\	.	4g\	.	.	.
4G\	-ne-	4d\	-ne-	4f\	-ne-	4b\	-ne-
!LO:LB:g=original	!	!	!	!	!	!	!
=40	=40	=40	=40	=40	=40	=40	=40
4c\	-di-	16e\LL	-di-	16g\LL	-di-	4g\	-di-
.	.	16d\	.	16f\	.	.	.
.	.	16c\	.	16e\	.	.	.
.	.	16d\JJ	.	16f\JJ	.	.	.
4C/	-ctus	8c\L	-ctus	8e\L	-ctus	4g\	-ctus
.	.	8e\J	.	8g\J	.	.	.
8BB/L	qvi	8d\L	qvi	8f\L	qvi	4g\	qvi
8C/J	.	8c\J	.	8e\J	.	.	.
=41	=41	=41	=41	=41	=41	=41	=41
4G\	ve-	4c\	ve-	4e\	ve-	4g/	ve-
4GG/	-nit	4B\	-nit	4d\	-nit	4g/	-nit
4G\	in	4d\	in	4f\	in	4g/	in
!	!	!LO:LB:g=original	!	!LO:LB:g=original	!	!	!
=42	=42	=42	=42	=42	=42	=42	=42
8C/L	no-	8c\L	no-	8e\L	no-	4.g/	no-
8BB/J	.	8d\J	.	8f\J	.	.	.
8C/	.	8c\	-mi-	8e\	.	.	.
8BB/	-mi-	8d\	.	8f\	-mi-	8g/	-mi-
4C/	-ne	4e\	-ne	4g\	-ne	4g/	-ne
!	!	!	!	!	!	!LO:LB:g=original	!
=43	=43	=43	=43	=43	=43	=43	=43
4F\	Do-	8f\L	Do-	8a\L	Do-	4a\	do-
.	.	16e\L	.	16g\L	.	.	.
.	.	16d\JJ	.	16f\JJ	.	.	.
4G\	.	4c\	.	4e\	.	4g\	.
4GG/	-mi-	4B\	-mi-	4d\	-mi-	4g\	-mi-
=44	=44	=44	=44	=44	=44	=44	=44
4C/	-ni	4c\	-ni	4e\	-ni	4g\	-ni
4r	.	4r	.	4r	.	4r	.
4C/	qvi	8c\L	qvi	8e\L	qvi	4r	.
.	.	8d\J	.	8f\J	.	.	.
=45	=45	=45	=45	=45	=45	=45	=45
4G\	ve-	4c\	ve-	4e\	ve-	2.r	.
4GG/	-nit	4B\	-nit	4d\	-nit	.	.
!LO:LB:g=original	!	!	!	!	!	!	!
=-	=-	=-	=-	=-	=-	=-	=-
8G\L	qvi	8d\L	qvi	8f\L	qvi	.	.
16A\L	.	8e\J	.	8g\J	.	.	.
16B\JJ	.	.	.	.	.	.	.
=46	=46	=46	=46	=46	=46	=46	=46
4c\	ve-	4d\	ve-	4f\	ve-	4r	.
4C/	-nit	4c\	-nit	4e\	-nit	4r	.
4r	.	8c\L	qvi	4e\	qvi	8a\L	qvi
.	.	8d\J	.	.	.	8b\J	.
=47	=47	=47	=47	=47	=47	=47	=47
2.r	.	4c\	ve-	4e\	ve-	4a\	ve-
.	.	4B\	-nit	4e\	-nit	4g#X\	-nit
!	!	!LO:LB:g=original	!	!	!	!	!
=-	=-	=-	=-	=-	=-	=-	=-
.	.	8d\L	qvi	4e\	qvi	8b\L	qvi
.	.	8e\J	.	.	.	8cc\J	.
!	!	!	!	!LO:LB:g=original	!	!	!
=48	=48	=48	=48	=48	=48	=48	=48
4r	.	4d\	ve-	4e\	ve-	4b\	ve-
4r	.	4c\	-nit	4e\	-nit	4a\	-nit
4AA/	in	4c\	in	4e\	in	4a\	in
=49	=49	=49	=49	=49	=49	=49	=49
4.AA/	no-	4.c\	no-	4.e\	no-	4.a\	no-
8BB/	-mi-	8B\	-mi-	8d\	-mi-	8g#X\	-mi-
4C/	-ne	8A\L	-ne	8c\L	-ne	4a\	-ne
.	.	16B\L	.	16d\L	.	.	.
.	.	16c\JJ	.	16e\JJ	.	.	.
!	!	!	!	!	!	!LO:LB:g=original	!
=50	=50	=50	=50	=50	=50	=50	=50
4D\	do-	4d\	Do-	4f\	do-	4b\	Do-
4E\	.	4c\	.	4e\	.	4a\	.
4E\	-mi-	4B\	-mi-	4e\	-mi-	4g#X\	-mi-
=51	=51	=51	=51	=51	=51	=51	=51
4AA/	-ni	4c\	-ni	4e\	-ni	4a\	-ni
4r	.	4r	.	4r	.	4r	.
4AA/	in	4c\	in	4e\	in	4a\	in
!LO:LB:g=original	!	!	!	!	!	!	!
=52	=52	=52	=52	=52	=52	=52	=52
4.AA/	no-	4.c\	no-	4.e\	no-	4.a\	no-
8BB/	-mi-	8B\	-mi-	8d\	-mi-	8g#X\	-mi-
4C/	-ne	8A\L	-ne	8c\L	-ne	4a\	-ne
.	.	16B\L	.	16d\L	.	.	.
.	.	16c\JJ	.	16e\JJ	.	.	.
=53	=53	=53	=53	=53	=53	=53	=53
4D\	do-	4d\	Do-	4f\	do-	4b\	Do-
4E\	.	4c\	.	4e\	.	4a\	.
4E\	-mi-	4B\	-mi-	4e\	-mi-	4g#X\	-mi-
=54	=54	=54	=54	=54	=54	=54	=54
!	!	!	!	!	!	!LO:SIC:v:s=8qqg#/	!
.	.	8qqB/	.	.	.	8qqg/	.
2AA/	-ni	2c\	-ni	2e\	-ni	2a\	-ni
!LO:TX:b:t=Osanna Da Capo	!	!LO:TX:b:t=Osanna Da Capo	!	!LO:TX:b:t=Osanna Da Capo	!	!LO:TX:b:t=Osanna Da \ncapo	!
4r	.	4r	.	4r	.	4r	.
!LO:PB:g=original	!	!LO:PB:g=original	!	!LO:PB:g=original	!	!LO:PB:g=original	!
==;;	==	==	==	==;;	==	==	==
*-	*-	*-	*-	*-	*-	*-	*-
!!!system-decoration: [(s1,s2,s3,s4)]
!!!ENC: Marta Chmielewska
!!!END: 2021-08-07
!!!ENC: Marcin Jachim
!!!END: 2021-07-09
